!!!SOCIAL_FUNCTION:	songs of games played in a ceremonial manner
!!!PDT:	1932
!!!OTL: No_3_Song_of_Kesigokiu.krn
!!!REG: Wisconsin
!!!LANG: Non-Tone
!!!LING_GROUP: Algonquin
**kern
*staff1
=1-
*clefF4
*k[b-e-a-d-]
*M2/4
4c\
4d-\
=2||
*M3/4
4c\
8c\L
8c\J
8c\L
8c\J
=3||
*M2/4
8.B-\L
16G\Jk
4F\
=4
4F\
8F\
8r
=5
4c\
4G\
=6||
*M3/4
4B-\
8B-\L
8B-\J
8B-\L
8B-\J
=7||
*M2/4
8.A-\L
16G\Jk
4F\
=8
4F\
8F\
8r
=9
4G\
4G\
=10||
*M3/4
4F\
8F\L
8F\J
8E-\L
8D-\J
=11||
*M2/4
8.C/L
16C/Jk
4BB-/
=12
4C/
8C/L
8C/J
=13||
*M3/4
8C/L
8AA-/J
4FF/
4r
=14||
*M2/4
8.C/L
16C/Jk
4BB-/
=15||
*M3/4
2BB-/
8BB-/L
8GG/J
=16
2.FF/
==
*-
